app/img/main-block-image-5.svg

<svg width="64" height="64" viewBox="0 0 64 64" fill="none" xmlns="http://www.w3.org/2000/svg">
<rect width="64" height="64" rx="18" fill="white"/>
<path d="M38.3468 35.9165C39.9639 35.9165 41.5628 36.321 42.9709 37.0862C43.2266 37.224 43.4612 37.3883 43.7008 37.5463C46.0117 33.0227 47.2312 28.2383 47.2312 23.5709C47.2312 23.3086 47.2312 23.0378 47.2228 22.7671C47.2059 22.3863 46.9351 22.0563 46.5543 21.9717C41.4436 20.8548 36.8151 18.0879 33.1766 13.9756L32.6351 13.3578C32.4743 13.1717 32.2459 13.0702 32.0005 13.0702C31.7381 13.0363 31.5351 13.1632 31.3743 13.3409L30.5451 14.2548C27.0928 18.054 22.7435 20.6771 17.9713 21.8448L17.4212 21.9801C17.0489 22.0648 16.7866 22.3948 16.7782 22.7755C16.4736 34.6725 23.4966 43.2271 26.5259 46.3578C27.346 47.1999 28.2604 48.0369 29.1299 48.7287C28.8037 47.745 28.616 46.71 28.616 45.6473C28.616 40.2816 32.981 35.9165 38.3468 35.9165Z" fill="url(#paint0_linear)"/>
<path d="M42.1632 38.573C40.9955 37.9384 39.6755 37.6084 38.3471 37.6084C33.9132 37.6084 30.3086 41.213 30.3086 45.6469C30.3086 47.1446 30.7148 48.6084 31.4932 49.8607C32.974 52.2553 35.5294 53.6853 38.3471 53.6853C42.7725 53.6853 46.3855 50.0807 46.3855 45.6469C46.3855 42.6853 44.7694 39.9776 42.1632 38.573ZM42.4639 44.5766L36.1769 49.4692L34.0305 46.1119C33.7785 45.7181 33.8937 45.1951 34.2875 44.9435C34.6816 44.6914 35.2051 44.8075 35.4559 45.2004L36.6024 46.9936L41.4244 43.2412C41.7926 42.9541 42.3247 43.0198 42.6119 43.3891C42.899 43.7581 42.8325 44.2898 42.4639 44.5766Z" fill="url(#paint1_linear)"/>
<defs>
<linearGradient id="paint0_linear" x1="31.9999" y1="13.0647" x2="31.9999" y2="48.7287" gradientUnits="userSpaceOnUse">
<stop stop-color="#EF8080"/>
<stop offset="1" stop-color="#F0145A"/>
</linearGradient>
<linearGradient id="paint1_linear" x1="38.3471" y1="37.6084" x2="38.3471" y2="53.6853" gradientUnits="userSpaceOnUse">
<stop stop-color="#EF8080"/>
<stop offset="1" stop-color="#F0145A"/>
</linearGradient>
</defs>
</svg>

<svg width="64" height="64" fill="none" xmlns="http://www.w3.org/2000/svg"><rect width="64" height="64" rx="18" fill="#fff"/><path d="M38.347 35.916a9.71 9.71 0 014.624 1.17c.256.138.49.302.73.46 2.31-4.523 3.53-9.308 3.53-13.975 0-.262 0-.533-.008-.804a.855.855 0 00-.669-.795c-5.11-1.117-9.739-3.884-13.377-7.996l-.542-.618a.83.83 0 00-.634-.288c-.263-.034-.466.093-.627.27l-.829.915c-3.452 3.799-7.802 6.422-12.574 7.59l-.55.135a.831.831 0 00-.643.796c-.304 11.896 6.719 20.451 9.748 23.582.82.842 1.734 1.679 2.604 2.37a9.78 9.78 0 01-.514-3.08c0-5.366 4.365-9.732 9.73-9.732z" fill="url(#paint0_linear)"/><path d="M42.163 38.573a8.012 8.012 0 00-3.816-.965c-4.434 0-8.038 3.605-8.038 8.039 0 1.498.406 2.961 1.184 4.214a8.002 8.002 0 006.854 3.824c4.425 0 8.038-3.604 8.038-8.038a8.021 8.021 0 00-4.222-7.074zm.3 6.004l-6.286 4.892-2.146-3.357a.845.845 0 111.425-.912l1.146 1.794 4.822-3.753a.846.846 0 111.04 1.336z" fill="url(#paint1_linear)"/><defs><linearGradient id="paint0_linear" x1="32" y1="13.065" x2="32" y2="48.729" gradientUnits="userSpaceOnUse"><stop stop-color="#EF8080"/><stop offset="1" stop-color="#F0145A"/></linearGradient><linearGradient id="paint1_linear" x1="38.347" y1="37.608" x2="38.347" y2="53.685" gradientUnits="userSpaceOnUse"><stop stop-color="#EF8080"/><stop offset="1" stop-color="#F0145A"/></linearGradient></defs></svg>
